markets/LDO.svg

<svg width="42" height="42" viewBox="0 0 42 42" fill="none" xmlns="http://www.w3.org/2000/svg">
<g clip-path="url(#clip0_7277_55389)">
<mask id="mask0_7277_55389" style="mask-type:luminance" maskUnits="userSpaceOnUse" x="0" y="0" width="42" height="42">
<path d="M21 0C32.592 0 42 9.408 42 21C42 32.592 32.592 42 21 42C9.408 42 0 32.592 0 21C0 9.408 9.408 0 21 0Z" fill="white"/>
</mask>
<g mask="url(#mask0_7277_55389)">
<path d="M0 0L42 42M42 0L0 42" stroke="black" stroke-miterlimit="22.9256"/>
</g>
<path d="M21 0C32.592 0 42 9.408 42 21C42 32.592 32.592 42 21 42C9.408 42 0 32.592 0 21C0 9.408 9.408 0 21 0Z" fill="url(#paint0_linear_7277_55389)"/>
<mask id="mask1_7277_55389" style="mask-type:luminance" maskUnits="userSpaceOnUse" x="9" y="19" width="24" height="18">
<path d="M20.9833 24.7296L11.6257 19.3872L11.3737 19.7736C8.50093 24.192 9.13933 29.9712 12.9193 33.684C17.3713 38.052 24.5953 38.052 29.0473 33.684C32.8273 29.9712 33.4657 24.192 30.5929 19.7736L30.3409 19.3872L20.9833 24.7296Z" fill="white"/>
</mask>
<g mask="url(#mask1_7277_55389)">
<path d="M20.9831 37.2961C27.2831 37.2961 32.3903 32.1889 32.3903 25.8889C32.3903 19.5889 27.2831 14.4817 20.9831 14.4817C14.6831 14.4817 9.57593 19.5889 9.57593 25.8889C9.57593 32.1889 14.6831 37.2961 20.9831 37.2961Z" fill="url(#paint1_radial_7277_55389)"/>
</g>
<path d="M20.9832 12.8015L12.9192 17.4047L20.9832 22.0079L29.0472 17.4047L20.9832 12.8015Z" fill="url(#paint2_radial_7277_55389)"/>
<path d="M21.0004 13.9944L11.626 19.3872L20.9836 24.7296L30.3244 19.3872L21.0004 13.9944Z" fill="url(#paint3_radial_7277_55389)"/>
<path d="M20.9832 5.04004L12.9192 17.4048L20.9832 22.008V5.04004Z" fill="url(#paint4_linear_7277_55389)"/>
<path d="M20.9832 22.008L29.0472 17.4048L20.9832 5.04004V22.008Z" fill="url(#paint5_linear_7277_55389)"/>
</g>
<defs>
<linearGradient id="paint0_linear_7277_55389" x1="21" y1="0" x2="21" y2="42" gradientUnits="userSpaceOnUse">
<stop stop-color="#F89791"/>
<stop offset="1" stop-color="#F7C882"/>
</linearGradient>
<radialGradient id="paint1_radial_7277_55389" cx="0" cy="0" r="1" gradientUnits="userSpaceOnUse" gradientTransform="translate(20.9616 35.2257) rotate(-90.4664) scale(15.2338 18.1577)">
<stop stop-color="#C5C6AB"/>
<stop offset="1" stop-color="#7985AB"/>
</radialGradient>
<radialGradient id="paint2_radial_7277_55389" cx="0" cy="0" r="1" gradientUnits="userSpaceOnUse" gradientTransform="translate(20.9832 17.4047) scale(0.4032)">
<stop stop-color="#0066FF" stop-opacity="0"/>
<stop offset="1" stop-color="#00C2FF" stop-opacity="0.4"/>
</radialGradient>
<radialGradient id="paint3_radial_7277_55389" cx="0" cy="0" r="1" gradientUnits="userSpaceOnUse" gradientTransform="translate(20.9752 19.362) scale(0.470534)">
<stop stop-color="#AEE6F9" stop-opacity="0.8588"/>
<stop offset="1" stop-color="#C8D6DC"/>
</radialGradient>
<linearGradient id="paint4_linear_7277_55389" x1="16.9512" y1="4.20004" x2="16.9512" y2="21" gradientUnits="userSpaceOnUse">
<stop stop-color="#77D4FF"/>
<stop offset="1" stop-color="#93D6F2" stop-opacity="0.898"/>
</linearGradient>
<linearGradient id="paint5_linear_7277_55389" x1="25.0152" y1="4.20004" x2="25.0152" y2="21" gradientUnits="userSpaceOnUse">
<stop stop-color="#506AAC"/>
<stop offset="1" stop-color="#96CFEF" stop-opacity="0.8196"/>
</linearGradient>
<clipPath id="clip0_7277_55389">
<rect width="42" height="42" rx="21" fill="white"/>
</clipPath>
</defs>
</svg>

<svg xmlns="http://www.w3.org/2000/svg" width="42" height="42" fill="none"><g clip-path="url(#a)"><mask id="b" width="42" height="42" x="0" y="0" maskUnits="userSpaceOnUse" style="mask-type:luminance"><path fill="#fff" d="M21 0c11.592 0 21 9.408 21 21s-9.408 21-21 21S0 32.592 0 21 9.408 0 21 0Z"/></mask><g mask="url(#b)"><path stroke="#000" stroke-miterlimit="22.926" d="m0 0 42 42m0-42L0 42"/></g><path fill="url(#c)" d="M21 0c11.592 0 21 9.408 21 21s-9.408 21-21 21S0 32.592 0 21 9.408 0 21 0Z"/><mask id="d" width="24" height="18" x="9" y="19" maskUnits="userSpaceOnUse" style="mask-type:luminance"><path fill="#fff" d="m20.983 24.73-9.357-5.343-.252.387C8.5 24.192 9.139 29.97 12.919 33.684c4.452 4.368 11.676 4.368 16.128 0 3.78-3.713 4.419-9.492 1.546-13.91l-.252-.387-9.358 5.343Z"/></mask><g mask="url(#d)"><path fill="url(#e)" d="M20.983 37.296c6.3 0 11.407-5.107 11.407-11.407s-5.107-11.407-11.407-11.407S9.576 19.589 9.576 25.889s5.107 11.407 11.407 11.407Z"/></g><path fill="url(#f)" d="m20.983 12.802-8.064 4.603 8.064 4.603 8.064-4.603-8.064-4.604Z"/><path fill="url(#g)" d="m21 13.994-9.374 5.393 9.358 5.343 9.34-5.343L21 13.994Z"/><path fill="url(#h)" d="M20.983 5.04 12.92 17.405l8.064 4.603V5.04Z"/><path fill="url(#i)" d="m20.983 22.008 8.064-4.603L20.983 5.04v16.968Z"/></g><defs><radialGradient id="e" cx="0" cy="0" r="1" gradientTransform="rotate(-90.466 27.95 7.217) scale(15.2338 18.1577)" gradientUnits="userSpaceOnUse"><stop stop-color="#C5C6AB"/><stop offset="1" stop-color="#7985AB"/></radialGradient><radialGradient id="f" cx="0" cy="0" r="1" gradientTransform="translate(20.983 17.405) scale(.4032)" gradientUnits="userSpaceOnUse"><stop stop-color="#06F" stop-opacity="0"/><stop offset="1" stop-color="#00C2FF" stop-opacity=".4"/></radialGradient><radialGradient id="g" cx="0" cy="0" r="1" gradientTransform="matrix(.47053 0 0 .47053 20.975 19.362)" gradientUnits="userSpaceOnUse"><stop stop-color="#AEE6F9" stop-opacity=".859"/><stop offset="1" stop-color="#C8D6DC"/></radialGradient><linearGradient id="c" x1="21" x2="21" y1="0" y2="42" gradientUnits="userSpaceOnUse"><stop stop-color="#F89791"/><stop offset="1" stop-color="#F7C882"/></linearGradient><linearGradient id="h" x1="16.951" x2="16.951" y1="4.2" y2="21" gradientUnits="userSpaceOnUse"><stop stop-color="#77D4FF"/><stop offset="1" stop-color="#93D6F2" stop-opacity=".898"/></linearGradient><linearGradient id="i" x1="25.015" x2="25.015" y1="4.2" y2="21" gradientUnits="userSpaceOnUse"><stop stop-color="#506AAC"/><stop offset="1" stop-color="#96CFEF" stop-opacity=".82"/></linearGradient><clipPath id="a"><rect width="42" height="42" fill="#fff" rx="21"/></clipPath></defs></svg>
